polaris-icons/icons/newicons/OrderStatusMinor.svg

<svg width="20" height="20" viewBox="0 0 20 20" fill="none" xmlns="http://www.w3.org/2000/svg">
<path fill-rule="evenodd" clip-rule="evenodd" d="M16.25 12C16.0279 12 15.8283 11.9034 15.691 11.75H13.0406C12.8913 11.75 12.7587 11.8455 12.7115 11.9872C12.4601 12.7413 11.7544 13.25 10.9594 13.25H9.04057C8.24563 13.25 7.53987 12.7413 7.28849 11.9872C7.24128 11.8455 7.10873 11.75 6.95943 11.75H4.5V13.25C4.5 14.4926 5.50736 15.5 6.75 15.5H10.75C11.1642 15.5 11.5 15.8358 11.5 16.25C11.5 16.6642 11.1642 17 10.75 17H6.75C4.67893 17 3 15.3211 3 13.25V11C3 10.943 3.0065 10.8862 3.01936 10.8307L4.16112 5.90347C4.55502 4.20357 6.06938 3 7.81432 3H12.1857C13.9306 3 15.445 4.20357 15.8389 5.90346L16.9806 10.8307C16.9935 10.8862 17 10.943 17 11V11.25C17 11.6642 16.6642 12 16.25 12ZM5.6224 6.24208C5.85874 5.22214 6.76735 4.5 7.81432 4.5H12.1857C13.2326 4.5 14.1413 5.22214 14.3776 6.24208L15.3063 10.25H13.0406C12.2456 10.25 11.5399 10.7587 11.2885 11.5128C11.2413 11.6545 11.1087 11.75 10.9594 11.75H9.04057C8.89127 11.75 8.75872 11.6545 8.71151 11.5128C8.46013 10.7587 7.75437 10.25 6.95943 10.25H4.69367L5.6224 6.24208Z" fill="black"/>
<path fill-rule="evenodd" clip-rule="evenodd" d="M13 15.75C13 17.2688 14.2312 18.5 15.75 18.5C17.2688 18.5 18.5 17.2688 18.5 15.75C18.5 14.2312 17.2688 13 15.75 13C14.2312 13 13 14.2312 13 15.75ZM17 15.75C17 16.4404 16.4404 17 15.75 17V14.5C16.4404 14.5 17 15.0596 17 15.75Z" fill="black"/>
</svg>

<svg viewBox="0 0 20 20" fill="none" xmlns="http://www.w3.org/2000/svg"><path fill-rule="evenodd" clip-rule="evenodd" d="M16.25 12a.748.748 0 0 1-.559-.25h-2.65a.347.347 0 0 0-.33.237 1.847 1.847 0 0 1-1.752 1.263h-1.918c-.795 0-1.501-.509-1.753-1.263a.347.347 0 0 0-.329-.237h-2.459v1.5a2.25 2.25 0 0 0 2.25 2.25h4a.75.75 0 0 1 0 1.5h-4a3.75 3.75 0 0 1-3.75-3.75v-2.25a.75.75 0 0 1 .02-.17l1.141-4.927a3.75 3.75 0 0 1 3.653-2.903h4.372a3.75 3.75 0 0 1 3.653 2.903l1.142 4.928c.012.055.019.112.019.169v.25a.75.75 0 0 1-.75.75Zm-10.628-5.758a2.25 2.25 0 0 1 2.192-1.742h4.372a2.25 2.25 0 0 1 2.192 1.742l.928 4.008h-2.265c-.795 0-1.501.509-1.752 1.263a.347.347 0 0 1-.33.237h-1.918a.347.347 0 0 1-.33-.237 1.847 1.847 0 0 0-1.752-1.263h-2.265l.928-4.008Z" fill="#5C5F62"/><path fill-rule="evenodd" clip-rule="evenodd" d="M13 15.75a2.75 2.75 0 1 0 5.5 0 2.75 2.75 0 0 0-5.5 0Zm4 0c0 .69-.56 1.25-1.25 1.25v-2.5c.69 0 1.25.56 1.25 1.25Z" fill="#5C5F62"/></svg>
